Adwaita++/apps/scalable/aegisub.svg

<svg height="128" width="128" xmlns="http://www.w3.org/2000/svg" xmlns:xlink="http://www.w3.org/1999/xlink">
  <linearGradient id="linearGradient4929" gradientUnits="userSpaceOnUse" x1="15.568182" x2="43.590908" y1="5.25" y2="47.772728">
    <stop offset="0" stop-color="#f46363"/>
    <stop offset="1" stop-color="#9f0000"/>
  </linearGradient>
  <g fill="url(#linearGradient4929)" fill-rule="evenodd" transform="translate(0 64)">
    <path d="m36.998047-53.505859a1.50015 1.50015 0 0 0 -1.320313 2.210937l27.09375 50.376953a1.50015 1.50015 0 0 0 2.650391-.019531l26.208984-50.376953a1.50015 1.50015 0 0 0 -1.330078-2.191406zm-5.623047 5.160156a1.50015 1.50015 0 0 0 -1.232422.712891l-27.095703 43.904296a1.50015 1.50015 0 0 0 1.2832031 2.28711l51.0019529-.175782a1.50015 1.50015 0 0 0 1.310547-2.21875l-23.90625-43.728515a1.50015 1.50015 0 0 0 -1.361328-.78125zm64.265625.08789a1.50015 1.50015 0 0 0 -1.339844.771484l-24.259765 43.728517a1.50015 1.50015 0 0 0 1.30664 2.228515l51.355464.175781a1.50015 1.50015 0 0 0 1.28321-2.287109l-27.095705-43.904297a1.50015 1.50015 0 0 0 -1.25-.71289zm-31.517578 50.550782a1.50015 1.50015 0 0 0 -1.306641.789062l-27.095703 50.376949a1.50015 1.50015 0 0 0 1.320313 2.21094h53.304687a1.50015 1.50015 0 0 0 1.330078-2.1914l-26.208984-50.376958a1.50015 1.50015 0 0 0 -1.34375-.808593zm58.625003 1.224609-51.357425.175781a1.50015 1.50015 0 0 0 -1.306641 2.228516l24.261719 43.728515a1.50015 1.50015 0 0 0 2.589844.05859l27.095703-43.904292a1.50015 1.50015 0 0 0 -1.2832-2.28711zm-118.37305.087891a1.50015 1.50015 0 0 0 -1.2832031 2.287109l27.0937501 43.904302a1.50015 1.50015 0 0 0 2.59375-.06836l23.908203-43.730473a1.50015 1.50015 0 0 0 -1.310547-2.21875z" fill="#030303" opacity=".2"/>
    <path d="m36.998047 8.4941406a1.50015 1.50015 0 0 0 -1.320313 2.2109374l27.09375 50.376953a1.50015 1.50015 0 0 0 2.650391-.019531l26.208984-50.376953a1.50015 1.50015 0 0 0 -1.330078-2.1914064zm-5.623047 5.1601564a1.50015 1.50015 0 0 0 -1.232422.712891l-27.095703 43.904296a1.50015 1.50015 0 0 0 1.2832031 2.28711l51.0019529-.175782a1.50015 1.50015 0 0 0 1.310547-2.21875l-23.90625-43.728515a1.50015 1.50015 0 0 0 -1.361328-.78125zm64.265625.087891a1.50015 1.50015 0 0 0 -1.339844.771484l-24.259765 43.728516a1.50015 1.50015 0 0 0 1.30664 2.228515l51.355464.175781a1.50015 1.50015 0 0 0 1.28321-2.287109l-27.095705-43.904297a1.50015 1.50015 0 0 0 -1.25-.71289zm-31.517578 50.550781a1.50015 1.50015 0 0 0 -1.306641.789062l-27.095703 50.376949a1.50015 1.50015 0 0 0 1.320313 2.21094h53.304687a1.50015 1.50015 0 0 0 1.330078-2.1914l-26.208984-50.376958a1.50015 1.50015 0 0 0 -1.34375-.808593zm58.625003 1.224609-51.357425.175781a1.50015 1.50015 0 0 0 -1.306641 2.228516l24.261719 43.728515a1.50015 1.50015 0 0 0 2.589844.05859l27.095703-43.904292a1.50015 1.50015 0 0 0 -1.2832-2.28711zm-118.37305.087891a1.50015 1.50015 0 0 0 -1.2832031 2.287109l27.0937501 43.904302a1.50015 1.50015 0 0 0 2.59375-.06836l23.908203-43.730473a1.50015 1.50015 0 0 0 -1.310547-2.21875z" fill="#c01c28" transform="translate(0 -64)"/>
  </g>
  <g transform="translate(-1.599931 60.268076)">
    <path d="m128 86.807c-40.781 0-72.5 33.321-72.5 43.622 0 13.499 31.719 42.06 72.5 42.06s72.5-33.321 72.5-42.06c0-10.301-31.719-43.622-72.5-43.622z" opacity=".2" stroke-width="1.45" transform="matrix(.68965515 0 0 .68965515 -22.520213 -85.57416)"/>
    <path d="m65.755647-27.980371c-28.124828 0-49.999999 22.9799992-49.999999 30.0841406 0 9.3103494 21.875171 29.0068954 49.999999 29.0068954 28.12483 0 50.000003-22.9799989 50.000003-29.0068954 0-7.1041414-21.875173-30.0841406-50.000003-30.0841406z" fill="#fff"/>
    <circle cx="65.755653" cy="1.565148" fill="#1c71d8" r="25"/>
    <circle cx="65.755653" cy="1.565148" fill="#3d3846" r="13.636552"/>
  </g>
</svg>

<?xml version="1.0" encoding="UTF-8" standalone="no"?>
<!-- Created with Inkscape (http://www.inkscape.org/) -->

<svg
   xmlns:dc="http://purl.org/dc/elements/1.1/"
   xmlns:cc="http://creativecommons.org/ns#"
   xmlns:rdf="http://www.w3.org/1999/02/22-rdf-syntax-ns#"
   xmlns:svg="http://www.w3.org/2000/svg"
   xmlns="http://www.w3.org/2000/svg"
   xmlns:xlink="http://www.w3.org/1999/xlink"
   xmlns:sodipodi="http://sodipodi.sourceforge.net/DTD/sodipodi-0.dtd"
   xmlns:inkscape="http://www.inkscape.org/namespaces/inkscape"
   width="128"
   height="128"
   id="svg2383"
   sodipodi:version="0.32"
   inkscape:version="0.92.3 (2405546, 2018-03-11)"
   sodipodi:docname="scalable.svg"
   inkscape:output_extension="org.inkscape.output.svg.inkscape"
   inkscape:export-xdpi="720"
   inkscape:export-ydpi="720"
   version="1.0"
   style="display:inline">
  <defs
     id="defs2385">
    <linearGradient
       id="linearGradient4986">
      <stop
         id="stop4988"
         offset="0"
         style="stop-color:#000000;stop-opacity:0.48648649;" />
      <stop
         id="stop4990"
         offset="1"
         style="stop-color:#5e5e5e;stop-opacity:0.21621622;" />
    </linearGradient>
    <linearGradient
       id="linearGradient4931">
      <stop
         id="stop4933"
         offset="0"
         style="stop-color:#f46363;stop-opacity:1" />
      <stop
         id="stop4935"
         offset="1"
         style="stop-color:#9f0000;stop-opacity:1" />
    </linearGradient>
    <linearGradient
       id="linearGradient4793">
      <stop
         id="stop4795"
         offset="0"
         style="stop-color:#edb6b6;stop-opacity:1;" />
      <stop
         id="stop4797"
         offset="1"
         style="stop-color:#aa0000;stop-opacity:1;" />
    </linearGradient>
    <linearGradient
       id="linearGradient4775">
      <stop
         style="stop-color:#edb6b6;stop-opacity:1;"
         offset="0"
         id="stop4777" />
      <stop
         style="stop-color:#aa0000;stop-opacity:1;"
         offset="1"
         id="stop4779" />
    </linearGradient>
    <linearGradient
       id="linearGradient4737">
      <stop
         style="stop-color:#083de2;stop-opacity:1;"
         offset="0"
         id="stop4739" />
      <stop
         id="stop5312"
         offset="0.56410259"
         style="stop-color:#0638d7;stop-opacity:1;" />
      <stop
         style="stop-color:#041f78;stop-opacity:1;"
         offset="1"
         id="stop4741" />
    </linearGradient>
    <linearGradient
       id="linearGradient4725">
      <stop
         style="stop-color:#000000;stop-opacity:1;"
         offset="0"
         id="stop4727" />
      <stop
         style="stop-color:#545454;stop-opacity:1"
         offset="1"
         id="stop4729" />
    </linearGradient>
    <linearGradient
       id="linearGradient3205">
      <stop
         style="stop-color:#ffffff;stop-opacity:1;"
         offset="0"
         id="stop3207" />
      <stop
         id="stop5314"
         offset="0.33333334"
         style="stop-color:#ffffff;stop-opacity:1;" />
      <stop
         style="stop-color:#808080;stop-opacity:1;"
         offset="1"
         id="stop3209" />
    </linearGradient>
    <inkscape:perspective
       sodipodi:type="inkscape:persp3d"
       inkscape:vp_x="0 : 32 : 1"
       inkscape:vp_y="0 : 1000 : 0"
       inkscape:vp_z="64 : 32 : 1"
       inkscape:persp3d-origin="32 : 21.333333 : 1"
       id="perspective2391" />
    <inkscape:perspective
       id="perspective2413"
       inkscape:persp3d-origin="372.04724 : 350.78739 : 1"
       inkscape:vp_z="744.09448 : 526.18109 : 1"
       inkscape:vp_y="0 : 1000 : 0"
       inkscape:vp_x="0 : 526.18109 : 1"
       sodipodi:type="inkscape:persp3d" />
    <linearGradient
       inkscape:collect="always"
       xlink:href="#linearGradient4725"
       id="linearGradient4767"
       gradientUnits="userSpaceOnUse"
       x1="27.027142"
       y1="21.026211"
       x2="29.21999"
       y2="42.758331"
       gradientTransform="translate(-0.3239817,-0.7438881)" />
    <radialGradient
       inkscape:collect="always"
       xlink:href="#linearGradient4737"
       id="radialGradient4769"
       gradientUnits="userSpaceOnUse"
       gradientTransform="matrix(1.1363636,0,0,1.0989082,-3.4145312,-2.4356424)"
       cx="29.727272"
       cy="27.727272"
       fx="29.727272"
       fy="27.727272"
       r="13.790483" />
    <linearGradient
       inkscape:collect="always"
       xlink:href="#linearGradient4725"
       id="linearGradient4771"
       gradientUnits="userSpaceOnUse"
       x1="27.027142"
       y1="21.026211"
       x2="29.21999"
       y2="42.758331"
       gradientTransform="translate(-35.422191,-12.186161)" />
    <linearGradient
       inkscape:collect="always"
       xlink:href="#linearGradient4931"
       id="linearGradient4929"
       x1="15.568182"
       y1="5.25"
       x2="43.590908"
       y2="47.772728"
       gradientUnits="userSpaceOnUse" />
    <linearGradient
       inkscape:collect="always"
       xlink:href="#linearGradient4725"
       id="linearGradient4959"
       gradientUnits="userSpaceOnUse"
       gradientTransform="translate(-29.379642,-17.200191)"
       x1="27.027142"
       y1="21.026211"
       x2="29.21999"
       y2="42.758331" />
    <clipPath
       clipPathUnits="userSpaceOnUse"
       id="clipPath4966">
      <path
         sodipodi:nodetypes="czczc"
         id="path4968"
         d="m 1.5261376,29.127791 c 0,0 17.2711894,-11.129862 28.2840244,-11.352033 11.012835,-0.222171 37.472337,12.732686 37.472337,12.732686 0,0 -26.727302,10.844954 -37.871829,10.815112 C 18.346041,41.293928 1.5261376,29.127791 1.5261376,29.127791 Z"
         style="fill:none;fill-opacity:1;fill-rule:evenodd;stroke:url(#linearGradient4970);stroke-width:2;stroke-linecap:butt;stroke-linejoin:miter;stroke-miterlimit:4;stroke-dasharray:none;stroke-opacity:1"
         inkscape:connector-curvature="0" />
    </clipPath>
    <linearGradient
       inkscape:collect="always"
       xlink:href="#linearGradient4725"
       id="linearGradient4970"
       gradientUnits="userSpaceOnUse"
       gradientTransform="translate(-0.3239817,-0.743888)"
       x1="27.027142"
       y1="21.026211"
       x2="29.21999"
       y2="42.758331" />
  </defs>
  <sodipodi:namedview
     id="base"
     pagecolor="#ffffff"
     bordercolor="#666666"
     borderopacity="1.0"
     inkscape:pageopacity="0.0"
     inkscape:pageshadow="2"
     inkscape:zoom="6.21875"
     inkscape:cx="64"
     inkscape:cy="64"
     inkscape:current-layer="g4915"
     showgrid="true"
     inkscape:document-units="px"
     inkscape:grid-bbox="true"
     inkscape:snap-global="false"
     showguides="false"
     inkscape:guide-bbox="true"
     inkscape:window-width="1680"
     inkscape:window-height="970"
     inkscape:window-x="240"
     inkscape:window-y="34"
     inkscape:window-maximized="0">
    <inkscape:grid
       type="xygrid"
       id="grid4849" />
  </sodipodi:namedview>
  <metadata
     id="metadata2388">
    <rdf:RDF>
      <cc:Work
         rdf:about="">
        <dc:format>image/svg+xml</dc:format>
        <dc:type
           rdf:resource="http://purl.org/dc/dcmitype/StillImage" />
        <dc:title></dc:title>
      </cc:Work>
    </rdf:RDF>
  </metadata>
  <g
     id="layer1"
     inkscape:label="shield"
     inkscape:groupmode="layer"
     style="display:inline"
     transform="translate(0,64)">
    <g
       id="g4915"
       style="fill:url(#linearGradient4929);fill-opacity:1">
      <path
         id="path1067"
         d="m 36.998047,-53.505859 a 1.50015,1.50015 0 0 0 -1.320313,2.210937 l 27.09375,50.376953 A 1.50015,1.50015 0 0 0 65.421875,-0.9375 l 26.208984,-50.376953 a 1.50015,1.50015 0 0 0 -1.330078,-2.191406 z M 31.375,-48.345703 a 1.50015,1.50015 0 0 0 -1.232422,0.712891 L 3.046875,-3.728516 a 1.50015,1.50015 0 0 0 1.2832031,2.28711 L 55.332031,-1.617188 a 1.50015,1.50015 0 0 0 1.310547,-2.21875 L 32.736328,-47.564453 A 1.50015,1.50015 0 0 0 31.375,-48.345703 Z m 64.265625,0.08789 a 1.50015,1.50015 0 0 0 -1.339844,0.771484 L 70.041016,-3.757812 a 1.50015,1.50015 0 0 0 1.30664,2.228515 l 51.355464,0.175781 a 1.50015,1.50015 0 0 0 1.28321,-2.287109 L 96.890625,-47.544922 a 1.50015,1.50015 0 0 0 -1.25,-0.71289 z M 64.123047,2.292969 A 1.50015,1.50015 0 0 0 62.816406,3.082031 L 35.720703,53.45898 a 1.50015,1.50015 0 0 0 1.320313,2.21094 h 53.304687 a 1.50015,1.50015 0 0 0 1.330078,-2.1914 L 65.466797,3.101562 A 1.50015,1.50015 0 0 0 64.123047,2.292969 Z M 122.74805,3.517578 71.390625,3.693359 A 1.50015,1.50015 0 0 0 70.083984,5.921875 L 94.345703,49.65039 a 1.50015,1.50015 0 0 0 2.589844,0.05859 L 124.03125,5.804688 a 1.50015,1.50015 0 0 0 -1.2832,-2.28711 z M 4.375,3.605469 A 1.50015,1.50015 0 0 0 3.0917969,5.892578 L 30.185547,49.79688 a 1.50015,1.50015 0 0 0 2.59375,-0.06836 L 56.6875,5.998047 a 1.50015,1.50015 0 0 0 -1.310547,-2.21875 z"
         style="fill:#030303;fill-opacity:1;fill-rule:evenodd;stroke:none;stroke-width:1.5;stroke-linecap:butt;stroke-linejoin:miter;stroke-miterlimit:4;stroke-dasharray:none;stroke-opacity:1;opacity:0.2"
         inkscape:connector-curvature="0" />
      <path
         style="fill:#c01c28;fill-opacity:1;fill-rule:evenodd;stroke:none;stroke-width:1.5;stroke-linecap:butt;stroke-linejoin:miter;stroke-miterlimit:4;stroke-dasharray:none;stroke-opacity:1"
         d="M 36.998047 8.4941406 A 1.50015 1.50015 0 0 0 35.677734 10.705078 L 62.771484 61.082031 A 1.50015 1.50015 0 0 0 65.421875 61.0625 L 91.630859 10.685547 A 1.50015 1.50015 0 0 0 90.300781 8.4941406 L 36.998047 8.4941406 z M 31.375 13.654297 A 1.50015 1.50015 0 0 0 30.142578 14.367188 L 3.046875 58.271484 A 1.50015 1.50015 0 0 0 4.3300781 60.558594 L 55.332031 60.382812 A 1.50015 1.50015 0 0 0 56.642578 58.164062 L 32.736328 14.435547 A 1.50015 1.50015 0 0 0 31.375 13.654297 z M 95.640625 13.742188 A 1.50015 1.50015 0 0 0 94.300781 14.513672 L 70.041016 58.242188 A 1.50015 1.50015 0 0 0 71.347656 60.470703 L 122.70312 60.646484 A 1.50015 1.50015 0 0 0 123.98633 58.359375 L 96.890625 14.455078 A 1.50015 1.50015 0 0 0 95.640625 13.742188 z M 64.123047 64.292969 A 1.50015 1.50015 0 0 0 62.816406 65.082031 L 35.720703 115.45898 A 1.50015 1.50015 0 0 0 37.041016 117.66992 L 90.345703 117.66992 A 1.50015 1.50015 0 0 0 91.675781 115.47852 L 65.466797 65.101562 A 1.50015 1.50015 0 0 0 64.123047 64.292969 z M 122.74805 65.517578 L 71.390625 65.693359 A 1.50015 1.50015 0 0 0 70.083984 67.921875 L 94.345703 111.65039 A 1.50015 1.50015 0 0 0 96.935547 111.70898 L 124.03125 67.804688 A 1.50015 1.50015 0 0 0 122.74805 65.517578 z M 4.375 65.605469 A 1.50015 1.50015 0 0 0 3.0917969 67.892578 L 30.185547 111.79688 A 1.50015 1.50015 0 0 0 32.779297 111.72852 L 56.6875 67.998047 A 1.50015 1.50015 0 0 0 55.376953 65.779297 L 4.375 65.605469 z "
         transform="translate(0,-64)"
         id="path4851" />
    </g>
  </g>
  <g
     inkscape:groupmode="layer"
     id="layer3"
     inkscape:label="eye"
     style="display:inline;opacity:1"
     transform="translate(0,64)">
    <g
       transform="translate(-1.5999307,-3.7319243)"
       style="isolation:isolate"
       id="g58">
      <g
         id="g1053">
        <g
           transform="matrix(0.68965515,0,0,0.68965515,-22.520213,-85.57416)"
           id="g50"
           style="opacity:0.2;stroke-width:1.45000005">
          <path
             style="stroke-width:1.45000005"
             id="path48"
             d="m 128,86.807 c -40.781,0 -72.5,33.321 -72.5,43.622 0,13.499 31.719,42.06 72.5,42.06 40.781,0 72.5,-33.321 72.5,-42.06 0,-10.301 -31.719,-43.622 -72.5,-43.622 z"
             inkscape:connector-curvature="0" />
        </g>
        <path
           id="path52"
           d="m 65.755647,-27.980371 c -28.124828,0 -49.999999,22.9799992 -49.999999,30.0841406 0,9.3103494 21.875171,29.0068954 49.999999,29.0068954 28.12483,0 50.000003,-22.9799989 50.000003,-29.0068954 0,-7.1041414 -21.875173,-30.0841406 -50.000003,-30.0841406 z"
           inkscape:connector-curvature="0"
           style="fill:#ffffff;stroke-width:1" />
        <circle
           id="circle54"
           r="25"
           cy="1.565148"
           cx="65.755653"
           style="vector-effect:non-scaling-stroke;fill:#1c71d8;fill-opacity:1;stroke-width:1" />
        <circle
           id="circle56"
           r="13.636552"
           cy="1.565148"
           cx="65.755653"
           style="vector-effect:non-scaling-stroke;fill:#3d3846;fill-opacity:1;stroke-width:1" />
      </g>
    </g>
  </g>
</svg>
